X:30
T:Merry Fiddler (2nd Version), The
N:Written for Cath Chandler - thank you
C: A part Rob Neal May 2012, B Part Taz Tarry, May 2010, C Part Taz Tarry, May 2012
M:6/8
L:1/8
Q:3/8=110
K:D
|:A2 f fef|g2 e c2 B|A2 e ede|fed B2 A|A2 f fef|g2 e c2 B|ABc Bcd| cde def:|
|:aAA aAA|a2a agf|gBB gBB|g2 g gfe|aAA aAA|a2a agf|gfe agf|Ace d3:|
|:f2 A ABA|g3 f2 e|ecA ABc|def e3|f2 A ABA|g3 f2 A|ABc Bcd|ece d3:|

